X:1
T:El Paso Waltz
M:3/4
L:1/8
R:waltz
K:A
|:\
"A"E4 EE | "E"E2 F2 A2 | "A"{E}c6 | "E"B4 {cB}A2 | "Bm"FB3 c/2B/2A | "D"F2A2B2 | "A"c6 | "E"{dc}B2A2F2 |
"A"ED CD EC | "E"E2F2A2 | "A"{E}c6 | "E"B4A2 | "Bm"FB3 cB | "D"A2F2E2 | "E"FA3 AB | "A"A6 :|
|:\
"A"e4 cB | A3 Bcd | e3 f e2 | c3 B A2 | "Bm"FB2cBA | "D"F2A2B2 | "A"(c4c) d/2c/2 | "E"B2A2F2 |
"A"ce3 cB | A3 Bcd | e2a3f | e2 c2 A2 | "Bm"FB3cB | "D"A2F2E2 | "E"F2 A2 AB | "A"A6 :|
